X:1
T:The Foggy Dew
M:4/4
L:1/8
K:F
 B2| cc d2 _e2 cc| f4 B2 B2| c2 dd _e2 c2| f6 z2| F2 F2 c3 c| B2G-F _E2 EE|\
 F2 G2 BB G2| F6||
